img/footer/instagremm.svg

<svg width="55" height="55" viewBox="0 0 55 55" fill="none" xmlns="http://www.w3.org/2000/svg">
<path d="M32.7637 27.5C32.7637 30.4071 30.4071 32.7637 27.5 32.7637C24.5929 32.7637 22.2363 30.4071 22.2363 27.5C22.2363 24.5929 24.5929 22.2363 27.5 22.2363C30.4071 22.2363 32.7637 24.5929 32.7637 27.5Z" fill="black"/>
<path d="M39.8098 18.1868C39.5568 17.5012 39.1531 16.8806 38.6286 16.3711C38.1192 15.8466 37.499 15.4429 36.8129 15.1899C36.2565 14.9738 35.4206 14.7166 33.881 14.6465C32.2156 14.5706 31.7162 14.5542 27.4999 14.5542C23.2832 14.5542 22.7839 14.5701 21.1188 14.6461C19.5793 14.7166 18.743 14.9738 18.187 15.1899C17.5009 15.4429 16.8803 15.8466 16.3713 16.3711C15.8468 16.8806 15.4431 17.5007 15.1896 18.1868C14.9735 18.7432 14.7163 19.5795 14.6462 21.1191C14.5703 22.7841 14.5539 23.2835 14.5539 27.5002C14.5539 31.7165 14.5703 32.2159 14.6462 33.8813C14.7163 35.4209 14.9735 36.2568 15.1896 36.8132C15.4431 37.4993 15.8463 38.1195 16.3709 38.6289C16.8803 39.1534 17.5005 39.5571 18.1865 39.8101C18.743 40.0266 19.5793 40.2838 21.1188 40.3539C22.7839 40.4299 23.2828 40.4458 27.4995 40.4458C31.7167 40.4458 32.216 40.4299 33.8806 40.3539C35.4202 40.2838 36.2565 40.0266 36.8129 39.8101C38.1901 39.2789 39.2786 38.1904 39.8098 36.8132C40.0259 36.2568 40.2831 35.4209 40.3536 33.8813C40.4296 32.2159 40.4455 31.7165 40.4455 27.5002C40.4455 23.2835 40.4296 22.7841 40.3536 21.1191C40.2836 19.5795 40.0263 18.7432 39.8098 18.1868ZM27.4999 35.6085C23.0214 35.6085 19.3908 31.9784 19.3908 27.4998C19.3908 23.0212 23.0214 19.3911 27.4999 19.3911C31.9781 19.3911 35.6086 23.0212 35.6086 27.4998C35.6086 31.9784 31.9781 35.6085 27.4999 35.6085ZM35.9292 20.9655C34.8827 20.9655 34.0342 20.1171 34.0342 19.0705C34.0342 18.024 34.8827 17.1755 35.9292 17.1755C36.9757 17.1755 37.8242 18.024 37.8242 19.0705C37.8238 20.1171 36.9757 20.9655 35.9292 20.9655Z" fill="black"/>
<path d="M27.5 0C12.3145 0 0 12.3145 0 27.5C0 42.6855 12.3145 55 27.5 55C42.6855 55 55 42.6855 55 27.5C55 12.3145 42.6855 0 27.5 0ZM43.1958 34.0104C43.1194 35.6913 42.8521 36.839 42.4619 37.8436C41.6415 39.9647 39.9647 41.6415 37.8436 42.4619C36.8394 42.8521 35.6913 43.119 34.0108 43.1958C32.3269 43.2726 31.7889 43.291 27.5004 43.291C23.2115 43.291 22.674 43.2726 20.9896 43.1958C19.3091 43.119 18.161 42.8521 17.1569 42.4619C16.1028 42.0653 15.1486 41.4439 14.3597 40.6403C13.5566 39.8518 12.9351 38.8972 12.5386 37.8436C12.1483 36.8394 11.881 35.6913 11.8047 34.0108C11.727 32.3264 11.709 31.7885 11.709 27.5C11.709 23.2115 11.727 22.6736 11.8042 20.9896C11.8806 19.3087 12.1475 18.161 12.5377 17.1564C12.9343 16.1028 13.5561 15.1482 14.3597 14.3597C15.1482 13.5561 16.1028 12.9347 17.1564 12.5381C18.161 12.1479 19.3087 11.881 20.9896 11.8042C22.6736 11.7274 23.2115 11.709 27.5 11.709C31.7885 11.709 32.3264 11.7274 34.0104 11.8047C35.6913 11.881 36.839 12.1479 37.8436 12.5377C38.8972 12.9343 39.8518 13.5561 40.6407 14.3597C41.4439 15.1486 42.0657 16.1028 42.4619 17.1564C42.8525 18.161 43.1194 19.3087 43.1962 20.9896C43.273 22.6736 43.291 23.2115 43.291 27.5C43.291 31.7885 43.273 32.3264 43.1958 34.0104Z" fill="black"/>
</svg>

<svg width="55" height="55" fill="none" xmlns="http://www.w3.org/2000/svg"><path d="M32.764 27.5a5.264 5.264 0 11-10.528 0 5.264 5.264 0 0110.528 0z" fill="#000"/><path d="M39.81 18.187a4.894 4.894 0 00-1.181-1.816 4.889 4.889 0 00-1.816-1.181c-.556-.216-1.392-.473-2.932-.543-1.665-.076-2.165-.093-6.381-.093-4.217 0-4.716.016-6.381.092-1.54.07-2.376.328-2.932.544a4.886 4.886 0 00-1.816 1.181 4.897 4.897 0 00-1.181 1.816c-.216.556-.474 1.392-.544 2.932-.076 1.665-.092 2.165-.092 6.381s.016 4.716.092 6.381c.07 1.54.327 2.376.544 2.932a4.894 4.894 0 001.18 1.816 4.89 4.89 0 001.816 1.181c.557.217 1.393.474 2.933.544 1.665.076 2.164.092 6.38.092 4.218 0 4.717-.016 6.382-.092 1.54-.07 2.376-.327 2.932-.544a5.229 5.229 0 002.997-2.997c.216-.556.473-1.392.544-2.932.076-1.665.092-2.165.092-6.38 0-4.218-.016-4.717-.092-6.382-.07-1.54-.328-2.376-.544-2.932zM27.5 35.608a8.109 8.109 0 110-16.217 8.109 8.109 0 010 16.218zm8.43-14.642a1.895 1.895 0 110-3.79 1.895 1.895 0 010 3.79z" fill="#000"/><path d="M27.5 0C12.315 0 0 12.315 0 27.5S12.315 55 27.5 55 55 42.685 55 27.5 42.685 0 27.5 0zm15.696 34.01c-.077 1.681-.344 2.829-.734 3.834a8.075 8.075 0 01-4.618 4.618c-1.005.39-2.153.657-3.833.734-1.684.077-2.222.095-6.51.095-4.29 0-4.827-.018-6.511-.095-1.68-.077-2.829-.344-3.833-.734a7.737 7.737 0 01-2.797-1.822 7.74 7.74 0 01-1.821-2.796c-.39-1.005-.658-2.153-.734-3.833-.078-1.685-.096-2.223-.096-6.511s.018-4.826.095-6.51c.077-1.681.344-2.829.734-3.834a7.737 7.737 0 011.822-2.796 7.736 7.736 0 012.796-1.822c1.005-.39 2.153-.657 3.834-.734 1.684-.077 2.222-.095 6.51-.095s4.826.018 6.51.096c1.681.076 2.829.343 3.834.733a7.742 7.742 0 012.797 1.822 7.738 7.738 0 011.82 2.796c.392 1.005.658 2.153.735 3.834.077 1.684.095 2.222.095 6.51s-.018 4.826-.095 6.51z" fill="#000"/></svg>
